!!!COM: Mozart
!!!OTL: 12 Variations on "Ah Vous dirais-je, Maman" for the Piano,
!!!Variation: 7 c
**kern	**kern
*M2/4	*M2/4
=-	=-
2CC 2C	(8cL
.	16dL
.	16eJJ
.	16fLL
.	16g
.	16a
.	16bJJ
=	=
(4E	16ccLL
.	16dd
.	16ee
.	16ffJJ
4C)	16ggLL
.	16aa
.	16bb
.	16cccJJ
=	=
(4F	16bbLL
.	16aa
.	16gg#
.	16aaJJ
4C)	16dddLL
.	16ccc
.	16bb
.	16aaJJ)
=	=
4E	(16aaLL
.	16gg
.	16ff#
.	16ggJJ)
4C 4c	16r
.	(16ggLL
.	16eee
.	16ggJJ)
=	=
4AA 4A	16r
.	(16ffLL
.	16eee
.	16ffJJ)
4BB 4B	16r
.	(16ffLL
.	16ddd
.	16ffJJ)
=	=
4GG# 4G#	16r
.	(16eeLL
.	16ddd
.	16eeJJ)
4AA 4A	16r
.	(16eeLL
.	16ccc
.	16eeJJ)
=	=
4FF 4F	16r
.	(16ddLL
.	16ccc
.	16ddJJ)
4GG 4G	16r
.	(16ddLL
.	16bb
.	16ddJJ)
=	=
4CC 4C	4ee 4gg 4ccc
4r	4r
=	=
*-	*-
